**kern
*staff1
!!pagebreak:original
*I"P1
=1-
*clefG2
*k[f#c#]
*M3/4
8ff#\L
8gg\
8aa\
8dd\J
4ff#\
=2
8ee\L
8ff#\
8ee\
8cc#\J
4a/
=3
8b\L
8cc#\
8dd\
8g\J
4b\
=4
8a/L
8b/
8a/
8f#/J
4d/
=5
2f#/
8e/L
8g/J
=6
2f#/
8e/L
8g/J
=7
[2.f#/
=8
8f#/]
=
*-
